X: 5692
T: C'raad T'ou Goll My Caillin Veg Dhone?
R: jig
M: 6/8
K: Eminor
EGA B2A|GEE E3|eef g2f|dBB B3|
eee e2B|^cBA AGA|Bdc B2A|GEE E3||

